src/lib/packages/icons/src/assets/line/home-roof-activity.svg

<svg width="24" height="24" viewBox="0 0 24 24" fill="none" xmlns="http://www.w3.org/2000/svg">
<path d="M21.477 9.08502L14.0649 2.98907C12.8679 2.00707 11.133 2.00607 9.93598 2.98907L2.52399 9.08404C2.20499 9.34704 2.15796 9.81907 2.42096 10.1401C2.68396 10.4611 3.15799 10.5051 3.47699 10.2431L4.24994 9.60711V18.0001C4.24994 20.4181 5.58194 21.7501 7.99994 21.7501H15.9999C18.4179 21.7501 19.7499 20.4181 19.7499 18.0001V9.60711L20.5229 10.2431C20.6629 10.3581 20.8319 10.414 20.9999 10.414C21.2159 10.414 21.4309 10.321 21.5789 10.141C21.8429 9.82005 21.796 9.34802 21.477 9.08502ZM18.2499 18.0001C18.2499 19.5771 17.5769 20.2501 15.9999 20.2501H7.99994C6.42294 20.2501 5.74994 19.5771 5.74994 18.0001V8.37408L10.889 4.14911C11.532 3.62011 12.469 3.62011 13.112 4.14911L18.2509 8.37506V18.0001H18.2499ZM11.894 12.9232L13.165 14.192L15.4709 11.9571C15.7639 11.6641 16.2389 11.6641 16.5319 11.9571C16.8249 12.2501 16.8249 12.7251 16.5319 13.0181L14.2969 15.253C14.0049 15.545 13.616 15.7071 13.202 15.7071C13.202 15.7071 13.202 15.7071 13.201 15.7071C12.788 15.7071 12.3989 15.546 12.1059 15.254L10.8349 13.9852L8.53095 16.2171C8.38495 16.3631 8.19292 16.4371 8.00092 16.4371C7.80892 16.4371 7.61689 16.3641 7.47089 16.2171C7.17789 15.9241 7.17789 15.4491 7.47089 15.1561L9.70295 12.9241C10.3079 12.3211 11.29 12.3202 11.894 12.9232Z" fill="currentColor"/>
</svg>

<svg xmlns="http://www.w3.org/2000/svg" width="24" height="24" fill="none"><path fill="currentColor" d="m21.477 9.085-7.412-6.096a3.26 3.26 0 0 0-4.129 0L2.524 9.084a.751.751 0 0 0 .953 1.16l.773-.637V18c0 2.418 1.332 3.75 3.75 3.75h8c2.418 0 3.75-1.332 3.75-3.75V9.607l.773.636a.749.749 0 0 0 1.056-.102.75.75 0 0 0-.102-1.056ZM18.25 18c0 1.577-.673 2.25-2.25 2.25H8c-1.577 0-2.25-.673-2.25-2.25V8.374l5.139-4.225a1.755 1.755 0 0 1 2.223 0l5.139 4.226V18h-.001Zm-6.356-5.077 1.271 1.269 2.306-2.235a.75.75 0 1 1 1.06 1.061l-2.234 2.235a1.54 1.54 0 0 1-1.095.454h-.001c-.413 0-.802-.161-1.095-.453l-1.271-1.269-2.304 2.232a.748.748 0 0 1-1.06 0 .75.75 0 0 1 0-1.06l2.232-2.233a1.553 1.553 0 0 1 2.191 0Z"/></svg>
